images/canada.svg

<svg width="120" height="121" viewBox="0 0 120 121" fill="none" xmlns="http://www.w3.org/2000/svg">
<path fill-rule="evenodd" clip-rule="evenodd" d="M65.8047 12.1296V0.145827L53.1349 0L48.3851 8.13437L54.1916 14.1293L65.8047 12.1296ZM52.261 26.1131L36.7769 10.13L29.0348 18.1225L42.2389 30.2601L52.261 26.1131ZM68.54 35.4601L60.8095 29.657L62.2147 23.1307L75.4865 22.1199L92.9061 36.1014L89.0351 48.0872L83.2286 52.0844L77.422 48.0872V42.0943L71.6155 34.1037L68.54 35.4601ZM114.197 114.009H110.326C109.257 114.009 108.391 113.115 108.391 112.012C108.391 110.908 109.257 110.014 110.326 110.014H114.197C115.266 110.014 116.133 110.908 116.133 112.012C116.133 113.115 115.266 114.009 114.197 114.009ZM114.193 86.0421H118.064C119.133 86.0421 120 85.1477 120 84.0445C120 82.9412 119.133 82.0468 118.064 82.0468H114.193C113.125 82.0468 112.258 82.9412 112.258 84.0445C112.258 85.1477 113.125 86.0421 114.193 86.0421ZM90.9691 86.042L102.582 78.0515V70.0609L90.9691 58.0751L83.2271 66.0657L75.485 58.0751L67.743 64.068L75.485 74.0562L69.6785 86.042L63.8719 76.0538L50.3233 70.0609L58.0654 54.0799L63.8719 46.0893L50.3233 38.0988L42.5813 46.0893L17.4196 20.1201L1.93551 38.0988L6.48397 57.4399L0 64.068L5.80654 82.0467L52.2589 106.018L58.0654 96.0302L69.6785 104.021L77.4205 120.002L87.0981 104.021H102.582L104.518 92.0349L90.9691 86.042Z" fill="#C99B67"/>
</svg>

<svg width="120" height="121" fill="none" xmlns="http://www.w3.org/2000/svg"><path fill-rule="evenodd" clip-rule="evenodd" d="M65.805 12.13V.146L53.135 0l-4.75 8.134 5.807 5.995 11.613-2ZM52.26 26.113 36.777 10.13l-7.742 7.992L42.239 30.26l10.022-4.147Zm16.28 9.347-7.73-5.803 1.405-6.526 13.272-1.011 17.42 13.98-3.872 11.986-5.806 3.997-5.807-3.997v-5.993l-5.806-7.99-3.076 1.356Zm45.657 78.549h-3.871c-1.069 0-1.935-.894-1.935-1.997 0-1.104.866-1.998 1.935-1.998h3.871c1.069 0 1.936.894 1.936 1.998 0 1.103-.867 1.997-1.936 1.997Zm-.004-27.967h3.871c1.069 0 1.936-.894 1.936-1.998 0-1.103-.867-1.997-1.936-1.997h-3.871c-1.068 0-1.935.894-1.935 1.998 0 1.103.867 1.997 1.935 1.997Zm-23.224 0 11.613-7.99V70.06L90.969 58.075l-7.742 7.99-7.742-7.99-7.742 5.993 7.742 9.988-5.806 11.986-5.807-9.988-13.549-5.993 7.742-15.981 5.807-7.99-13.549-7.991-7.742 7.99L17.42 20.12 1.936 38.1l4.548 19.34L0 64.069l5.807 17.979 46.452 23.971 5.806-9.988 11.614 7.991 7.742 15.981 9.677-15.981h15.484l1.936-11.986-13.549-5.993Z" fill="#C99B67"/></svg>
